X: 18581
T: I Ne'er Shall Wean Her
R: jig
M: 6/8
K: Bminor
|:FAA AFE|FAA d2c|B/c/dB BAB|def f2e|
def a2b|afe d2e|fbb fge|1 dBB B2A:|2 dBB B2e||
|:faa afe|faa a2a|fbb bab|c'ba b2e|
def a2b|afe d2e|fbb fge|1 dBB B2e:|2 dBB B2A||

